X:299
T:Let Children Hear The Mighty Deeds
%%stretchlast false
M:4/4
L:1/4
K:F clef=C1
"^I"[F,,F,A,C] [F,,F,CA] "^I¹"[A,,F,CF] "^IV"[B,,F,B,D] | "^I¹"[A,,F,C] "^vi"[D,F,A,F] "^V"[C,E,CG] "^I"[F,CA] | "^V¹"[E,G,Cc] "^I"[F,CA] "^vi7"[D,A,CF] "^v"[G,CD] | "^II"[G,,G,=B,D]/ "^II7"[G,,F,=B,D]/ "^V"[C,E,C]3 | [C,E,CG]/ "^iii¹"[C,E,CA]/ "^IV¹"[D,F,B,B] "^V7¹"[E,G,CB] "^I"[F,CA] | "^I¹"[A,,F,CF] "^IV"[B,,F,B,D] "^ii¹"[B,,B,DG] "^V"[C,G,CE] | "^V¹"[E,G,Cc]/ "^V7¹"[E,G,CB]/ "^I"[F,CA] "^vi"[D,F,FA] "^ii¹"[B,,B,DG] | "^V"[C,G,CE]/ "^V7"[C,G,B,E]/ "^I"[F,,F,A,F]3 |]
